X: 1
T: Ciuleandra  [Am]
O: Romania
M: 12/16
L: 1/16
K: Am
[|"Am"A3- A2c B2A e3 | "Am"A3- A2c B2A E3 \
| "Am"A3- A2c B2A e3 | "Am"A3- A2c B2A E3 |
|  "C"c3- c2e d2c g3 | "C"c3- c2e d2c G3 \
|  "C"c3- c2e d2c g3 | "C"c2z "E7"B2z "Am"A2z z3 |]


%%sep 3 1 500

